X:5
T:Dans voor drie
O:vlaanderen
C:Trad.
Z:Bart Vanhaverbeke 
P:AB x4
L:1/8
M:2/4
K:Amin
P:Voorspel
"Dmin"DE FG | A>G A/G/F | "A7"GE "Dmin"D2 |]
P:A
"Dmin"DE FG | A>G A/G/F | "A7"G>F G/F/E | "Dmin" DE FG | A>G A/G/F | "A7"GE "Dmin"D2 :|
P:B
"Amin"AB cd | e>d c/B/A | "Dmin" dc BA | "E7"B>A ^G/F/E | "Amin"Ac "E7"B^G | "Dmin"A4 :|
